proprietary/odm/etc/camera/filters_lut/dolby_preview_3dlut.cube
#Created by : Dolby Laboratories
#Copyright: (C) Copyright 2022 Dolby Laboratories
#is_rgb_input 1
#is_rgb_output 1
#input_offset 0.000000
#shape_order 1.000000
#format 6
# MaxLuma:600.00 MinLuma:0.00010 Eotf=Gamma
#LUT Size
LUT_3D_SIZE 5
#data domain
DOMAIN_MIN 0 0 0
DOMAIN_MAX 1.0 1.0 1.0
#LUT data points
0.0009775171 0.0009775171 0.0009775171
0.1720430106 0.0009775171 0.0087976540
0.3470185697 0.0009775171 0.0234604105
0.5933528543 0.0009775171 0.0518084057
0.9423264861 0.0009775171 0.1016617790
0.0009775171 0.1749755591 0.0009775171
0.1818181872 0.1779081076 0.0009775171
0.3851417303 0.1720430106 0.0009775171
0.6461387873 0.1358748823 0.0381231681
0.9863147736 0.0645161271 0.0967741907
0.0009775171 0.3734115362 0.0009775171
0.1075268835 0.3763440847 0.0009775171
0.3841642141 0.3753665686 0.0009775171
0.6871945262 0.3499511182 0.0009775171
1.0000000000 0.2600195408 0.0752688199
0.0009775171 0.6412512064 0.0009775171
0.0009775171 0.6432062387 0.0009775171
0.2678397000 0.6432062387 0.0009775171
0.6412512064 0.6275659800 0.0009775171
1.0000000000 0.5356794000 0.0009775171
0.0009775171 1.0000000000 0.0009775171
0.0009775171 1.0000000000 0.0009775171
0.0009775171 1.0000000000 0.0009775171
0.3401759565 1.0000000000 0.0009775171
1.0000000000 0.9902248383 0.0009775171
0.0009775171 0.0156402737 0.1309872866
0.1759530753 0.0009775171 0.1573802531
0.3616813421 0.0009775171 0.1739980429
0.6207233667 0.0009775171 0.1857282519
0.9765396118 0.0009775171 0.1886608005
0.0009775171 0.1769305915 0.1720430106
0.1788856238 0.1788856238 0.1788856238
0.3910068572 0.1720430106 0.1896383166
0.6666666865 0.1290322542 0.1945258975
1.0000000000 0.0009775171 0.1896383166
0.0009775171 0.3782991171 0.1925708652
0.0909090936 0.3812316656 0.1945258975
0.3851417303 0.3782991171 0.1974584609
0.6979472041 0.3538611829 0.1974584609
1.0000000000 0.2561094761 0.1886608005
0.0009775171 0.6510263681 0.1837732196
0.0009775171 0.6520038843 0.1827957034
0.2639296055 0.6500488520 0.1818181872
0.6461387873 0.6334310770 0.1788856238
1.0000000000 0.5395894647 0.1710654944
0.0009775171 1.0000000000 0.1026392952
0.0009775171 1.0000000000 0.1006842628
0.0009775171 1.0000000000 0.0967741907
0.3372434080 1.0000000000 0.0830889568
1.0000000000 0.9951124191 0.0596285425
0.0009775171 0.0361681320 0.2717497647
0.1720430106 0.0009775171 0.3040078282
0.3734115362 0.0009775171 0.3333333433
0.6471163034 0.0009775171 0.3460410535
1.0000000000 0.0009775171 0.3245356679
0.0009775171 0.1798631549 0.3235581517
0.1652003974 0.1808406711 0.3372434080
0.3900293112 0.1720430106 0.3577712476
0.6803519130 0.1192570850 0.3636363745
1.0000000000 0.0009775171 0.3313783109
0.0009775171 0.3792766333 0.3685239553
0.0009775171 0.3812316656 0.3734115362
0.3782991171 0.3773216009 0.3782991171
0.7008797526 0.3538611829 0.3782991171
1.0000000000 0.2473118305 0.3431085050
0.0009775171 0.6568915248 0.3734115362
0.0009775171 0.6568915248 0.3734115362
0.2521994114 0.6539589167 0.3734115362
0.6461387873 0.6353861094 0.3695014715
1.0000000000 0.5434995294 0.3440860212
0.0009775171 1.0000000000 0.3108504415
0.0009775171 1.0000000000 0.3098729253
0.0009775171 1.0000000000 0.3088954091
0.3304007947 1.0000000000 0.3049853444
1.0000000000 1.0000000000 0.2903225720
0.0009775171 0.0723362640 0.5024437904
0.1290322542 0.0156402737 0.5415444970
0.3743890524 0.0009775171 0.5874877572
0.6744868159 0.0009775171 0.6011730433
1.0000000000 0.0009775171 0.5425220132
0.0009775171 0.1896383166 0.5532746911
0.0987292305 0.1876832843 0.5786901116
0.3763440847 0.1730205268 0.6099706888
0.6881720424 0.1055718511 0.6187683344
1.0000000000 0.0009775171 0.5562072396
0.0009775171 0.3773216009 0.6158357859
0.0009775171 0.3782991171 0.6246334314
0.3538611829 0.3753665686 0.6363636255
0.6901270747 0.3499511182 0.6383186579
1.0000000000 0.2336265892 0.5796676278
0.0009775171 0.6520038843 0.6334310770
0.0009775171 0.6520038843 0.6353861094
0.2111437023 0.6490713358 0.6363636255
0.6324535608 0.6304985285 0.6314760447
1.0000000000 0.5444770455 0.5923753381
0.0009775171 1.0000000000 0.5640273690
0.0009775171 1.0000000000 0.5640273690
0.0009775171 1.0000000000 0.5630498528
0.3088954091 1.0000000000 0.5601173043
1.0000000000 1.0000000000 0.5386119485
0.0009775171 0.1603128016 0.9843597412
0.0009775171 0.1348973662 1.0000000000
0.2746823132 0.0009775171 1.0000000000
0.6480938196 0.0009775171 1.0000000000
1.0000000000 0.0009775171 1.0000000000
0.0009775171 0.2326490730 1.0000000000
0.0009775171 0.2218963802 1.0000000000
0.2619745731 0.1935483813 1.0000000000
0.6441837549 0.1045943275 1.0000000000
1.0000000000 0.0009775171 1.0000000000
0.0009775171 0.3792766333 1.0000000000
0.0009775171 0.3773216009 1.0000000000
0.2101661712 0.3704789877 1.0000000000
0.6295210123 0.3411534727 1.0000000000
1.0000000000 0.2111437023 1.0000000000
0.0009775171 0.6285434961 1.0000000000
0.0009775171 0.6295210123 1.0000000000
0.0009775171 0.6275659800 1.0000000000
0.5650048852 0.6129032373 1.0000000000
1.0000000000 0.5317693353 1.0000000000
0.0009775171 1.0000000000 1.0000000000
0.0009775171 1.0000000000 1.0000000000
0.0009775171 1.0000000000 1.0000000000
0.1886608005 1.0000000000 1.0000000000
0.9980449677 0.9951124191 0.9960899353
