proprietary/odm/etc/camera/filters_lut/dolby_preview_3dlut.cube
#Created by : Dolby Laboratories
#Copyright: (C) Copyright 2022 Dolby Laboratories
#is_rgb_input 1
#is_rgb_output 1
#input_offset 0.000000
#shape_order 1.000000
#format 6
# MaxLuma:600.00 MinLuma:0.00010 Eotf=Gamma
#LUT Size
LUT_3D_SIZE 33
#data domain
DOMAIN_MIN 0 0 0
DOMAIN_MAX 1.0 1.0 1.0
#LUT data points
0.0009775171 0.0009775171 0.0009775171
0.0195503421 0.0009775171 0.0009775171
0.0400782004 0.0009775171 0.0009775171
0.0615835786 0.0009775171 0.0019550342
0.0840664729 0.0009775171 0.0039100684
0.1055718511 0.0009775171 0.0048875855
0.1280547380 0.0009775171 0.0058651026
0.1495601237 0.0009775171 0.0078201368
0.1720430106 0.0009775171 0.0087976540
0.1945258975 0.0009775171 0.0107526882
0.2170087993 0.0009775171 0.0117302053
0.2385141701 0.0009775171 0.0136852395
0.2609970570 0.0009775171 0.0156402737
0.2825024426 0.0009775171 0.0175953079
0.3040078282 0.0009775171 0.0195503421
0.3255131841 0.0009775171 0.0215053763
0.3470185697 0.0009775171 0.0234604105
0.3695014715 0.0009775171 0.0263929628
0.3939394057 0.0009775171 0.0283479970
0.4213098586 0.0009775171 0.0312805474
0.4516128898 0.0009775171 0.0351906158
0.4848484993 0.0009775171 0.0381231681
0.5190615654 0.0009775171 0.0430107526
0.5552297235 0.0009775171 0.0469208211
0.5933528543 0.0009775171 0.0518084057
0.6324535608 0.0009775171 0.0566959940
0.6735092998 0.0009775171 0.0625610948
0.7155424953 0.0009775171 0.0694037154
0.7585532665 0.0009775171 0.0752688199
0.8035190701 0.0009775171 0.0811339170
0.8484848738 0.0009775171 0.0879765376
0.8944281340 0.0009775171 0.0948191583
0.9423264861 0.0009775171 0.1016617790
0.0009775171 0.0185728259 0.0009775171
0.0195503421 0.0185728259 0.0009775171
0.0410557203 0.0175953079 0.0009775171
0.0625610948 0.0156402737 0.0009775171
0.0840664729 0.0107526882 0.0019550342
0.1065493673 0.0009775171 0.0039100684
0.1290322542 0.0009775171 0.0048875855
0.1505376399 0.0009775171 0.0068426197
0.1730205268 0.0009775171 0.0078201368
0.1955034286 0.0009775171 0.0097751711
0.2179863155 0.0009775171 0.0117302053
0.2394916862 0.0009775171 0.0136852395
0.2619745731 0.0009775171 0.0156402737
0.2834799588 0.0009775171 0.0175953079
0.3049853444 0.0009775171 0.0195503421
0.3264907002 0.0009775171 0.0215053763
0.3479960859 0.0009775171 0.0234604105
0.3704789877 0.0009775171 0.0254154447
0.3958944380 0.0009775171 0.0283479970
0.4232649207 0.0009775171 0.0312805474
0.4525904059 0.0009775171 0.0342130996
0.4858260155 0.0009775171 0.0381231681
0.5200390816 0.0009775171 0.0420332365
0.5562072396 0.0009775171 0.0469208211
0.5943304300 0.0009775171 0.0518084057
0.6334310770 0.0009775171 0.0566959940
0.6744868159 0.0009775171 0.0625610948
0.7165200114 0.0009775171 0.0684261993
0.7595307827 0.0009775171 0.0752688199
0.8044965863 0.0009775171 0.0811339170
0.8494623899 0.0009775171 0.0879765376
0.8954056501 0.0009775171 0.0948191583
0.9433040023 0.0009775171 0.1016617790
0.0009775171 0.0391006842 0.0009775171
0.0107526882 0.0391006842 0.0009775171
0.0400782004 0.0391006842 0.0009775171
0.0625610948 0.0391006842 0.0009775171
0.0860215053 0.0381231681 0.0009775171
0.1085043997 0.0361681320 0.0009775171
0.1309872866 0.0332355835 0.0009775171
0.1534701884 0.0293255132 0.0029325513
0.1759530753 0.0234604105 0.0058651026
0.1984359771 0.0107526882 0.0078201368
0.2209188640 0.0009775171 0.0097751711
0.2424242496 0.0009775171 0.0117302053
0.2649071217 0.0009775171 0.0136852395
0.2864125073 0.0009775171 0.0156402737
0.3088954091 0.0009775171 0.0175953079
0.3304007947 0.0009775171 0.0205278601
0.3519061506 0.0009775171 0.0224828944
0.3743890524 0.0009775171 0.0244379286
0.3988269866 0.0009775171 0.0273704790
0.4261974692 0.0009775171 0.0303030312
0.4565005004 0.0009775171 0.0342130996
0.4897360802 0.0009775171 0.0381231681
0.5239491463 0.0009775171 0.0420332365
0.5601173043 0.0009775171 0.0459433049
0.5972629786 0.0009775171 0.0508308895
0.6373411417 0.0009775171 0.0566959940
0.6774193645 0.0009775171 0.0615835786
0.7194526196 0.0009775171 0.0684261993
0.7624633312 0.0009775171 0.0742913038
0.8064516187 0.0009775171 0.0811339170
0.8514174223 0.0009775171 0.0879765376
0.8973606825 0.0009775171 0.0948191583
0.9452590346 0.0009775171 0.1016617790
0.0009775171 0.0606060624 0.0009775171
0.0009775171 0.0606060624 0.0009775171
0.0351906158 0.0606060624 0.0009775171
0.0615835786 0.0606060624 0.0009775171
0.0860215053 0.0606060624 0.0009775171
0.1094819158 0.0596285425 0.0009775171
0.1329423338 0.0586510263 0.0009775171
0.1554252207 0.0576735102 0.0009775171
0.1788856238 0.0547409579 0.0009775171
0.2013685256 0.0518084057 0.0009775171
0.2238514125 0.0478983372 0.0048875855
0.2463343143 0.0430107526 0.0078201368
0.2688172162 0.0371456519 0.0107526882
0.2913000882 0.0293255132 0.0136852395
0.3137829900 0.0146627566 0.0156402737
0.3352883756 0.0009775171 0.0175953079
0.3567937315 0.0009775171 0.0205278601
0.3792766333 0.0009775171 0.0224828944
0.4046920836 0.0009775171 0.0254154447
0.4320625663 0.0009775171 0.0293255132
0.4623655975 0.0009775171 0.0322580636
0.4956011772 0.0009775171 0.0361681320
0.5298142433 0.0009775171 0.0410557203
0.5659824014 0.0009775171 0.0449657887
0.6031280756 0.0009775171 0.0498533733
0.6422287226 0.0009775171 0.0557184741
0.6823069453 0.0009775171 0.0615835786
0.7243402004 0.0009775171 0.0674486831
0.7673509121 0.0009775171 0.0733137801
0.8113391995 0.0009775171 0.0801564008
0.8563050032 0.0009775171 0.0869990215
0.9022482634 0.0009775171 0.0938416421
0.9491690993 0.0009775171 0.1006842628
0.0009775171 0.0830889568 0.0009775171
0.0009775171 0.0830889568 0.0009775171
0.0244379286 0.0830889568 0.0009775171
0.0586510263 0.0830889568 0.0009775171
0.0850439891 0.0830889568 0.0009775171
0.1094819158 0.0830889568 0.0009775171
0.1339198500 0.0830889568 0.0009775171
0.1573802531 0.0821114406 0.0009775171
0.1808406711 0.0811339170 0.0009775171
0.2043010741 0.0791788846 0.0009775171
0.2277614921 0.0772238523 0.0009775171
0.2512218952 0.0742913038 0.0009775171
0.2737047970 0.0713587478 0.0019550342
0.2961876690 0.0684261993 0.0078201368
0.3186705709 0.0635386109 0.0117302053
0.3411534727 0.0586510263 0.0146627566
0.3626588583 0.0527859256 0.0175953079
0.3861192465 0.0459433049 0.0205278601
0.4115346968 0.0361681320 0.0234604105
0.4389051795 0.0166177917 0.0263929628
0.4701857269 0.0009775171 0.0303030312
0.5024437904 0.0009775171 0.0342130996
0.5366569161 0.0009775171 0.0391006842
0.5728250146 0.0009775171 0.0439882688
0.6099706888 0.0009775171 0.0488758571
0.6490713358 0.0009775171 0.0547409579
0.6901270747 0.0009775171 0.0596285425
0.7311828136 0.0009775171 0.0664711669
0.7741935253 0.0009775171 0.0733137801
0.8172042966 0.0009775171 0.0801564008
0.8621701002 0.0009775171 0.0860215053
0.9071359038 0.0009775171 0.0928641260
0.9540566802 0.0009775171 0.1006842628
0.0009775171 0.1055718511 0.0009775171
0.0009775171 0.1055718511 0.0009775171
0.0009775171 0.1055718511 0.0009775171
0.0518084057 0.1055718511 0.0009775171
0.0821114406 0.1055718511 0.0009775171
0.1085043997 0.1065493673 0.0009775171
0.1339198500 0.1065493673 0.0009775171
0.1583577693 0.1055718511 0.0009775171
0.1827957034 0.1055718511 0.0009775171
0.2072336227 0.1045943275 0.0009775171
0.2306940407 0.1026392952 0.0009775171
0.2541544437 0.1016617790 0.0009775171
0.2776148617 0.0997067466 0.0009775171
0.3010752797 0.0967741907 0.0009775171
0.3245356679 0.0938416421 0.0009775171
0.3470185697 0.0918866098 0.0068426197
0.3695014715 0.0879765376 0.0117302053
0.3929618895 0.0840664729 0.0156402737
0.4183773100 0.0791788846 0.0195503421
0.4467253089 0.0733137801 0.0234604105
0.4780058563 0.0654936433 0.0273704790
0.5102639198 0.0547409579 0.0322580636
0.5444770455 0.0400782004 0.0371456519
0.5806451440 0.0009775171 0.0420332365
0.6187683344 0.0009775171 0.0469208211
0.6578690410 0.0009775171 0.0527859256
0.6979472041 0.0009775171 0.0586510263
0.7390029430 0.0009775171 0.0654936433
0.7820137143 0.0009775171 0.0723362640
0.8250244260 0.0009775171 0.0782013685
0.8690127134 0.0009775171 0.0850439891
0.9149560332 0.0009775171 0.0928641260
0.9599217772 0.0009775171 0.0997067466
0.0009775171 0.1280547380 0.0009775171
0.0009775171 0.1280547380 0.0009775171
0.0009775171 0.1280547380 0.0009775171
0.0371456519 0.1290322542 0.0009775171
0.0762463361 0.1290322542 0.0009775171
0.1055718511 0.1290322542 0.0009775171
0.1329423338 0.1300097704 0.0009775171
0.1583577693 0.1300097704 0.0009775171
0.1837732196 0.1290322542 0.0009775171
0.2082111388 0.1290322542 0.0009775171
0.2326490730 0.1280547380 0.0009775171
0.2570869923 0.1270772219 0.0009775171
0.2815249264 0.1251221895 0.0009775171
0.3059628606 0.1241446733 0.0009775171
0.3294232786 0.1221896410 0.0009775171
0.3519061506 0.1192570850 0.0009775171
0.3753665686 0.1173020527 0.0009775171
0.3998045027 0.1143695042 0.0058651026
0.4261974692 0.1104594320 0.0127077224
0.4545454681 0.1065493673 0.0185728259
0.4858260155 0.1016617790 0.0234604105
0.5190615654 0.0938416421 0.0283479970
0.5532746911 0.0869990215 0.0332355835
0.5904203057 0.0772238523 0.0391006842
0.6275659800 0.0654936433 0.0449657887
0.6666666865 0.0488758571 0.0508308895
0.7067448497 0.0263929628 0.0566959940
0.7487781048 0.0009775171 0.0635386109
0.7908113599 0.0009775171 0.0703812316
0.8338220716 0.0009775171 0.0772238523
0.8778103590 0.0009775171 0.0840664729
0.9227761626 0.0009775171 0.0918866098
0.9677419066 0.0009775171 0.0987292305
0.0009775171 0.1515151560 0.0009775171
0.0009775171 0.1515151560 0.0009775171
0.0009775171 0.1515151560 0.0009775171
0.0009775171 0.1524926722 0.0009775171
0.0674486831 0.1524926722 0.0009775171
0.1006842628 0.1534701884 0.0009775171
0.1300097704 0.1534701884 0.0009775171
0.1564027369 0.1534701884 0.0009775171
0.1827957034 0.1534701884 0.0009775171
0.2091886550 0.1534701884 0.0009775171
0.2346041054 0.1524926722 0.0009775171
0.2590420246 0.1524926722 0.0009775171
0.2844574749 0.1515151560 0.0009775171
0.3088954091 0.1495601237 0.0009775171
0.3333333433 0.1485826075 0.0009775171
0.3567937315 0.1466275603 0.0009775171
0.3802541494 0.1446725279 0.0009775171
0.4056695998 0.1427174956 0.0009775171
0.4330400825 0.1397849470 0.0009775171
0.4623655975 0.1358748823 0.0087976540
0.4936461449 0.1319648027 0.0175953079
0.5268816948 0.1260997057 0.0234604105
0.5620723367 0.1202346012 0.0293255132
0.5992180109 0.1124144644 0.0351906158
0.6373411417 0.1036168113 0.0420332365
0.6764418483 0.0948191583 0.0478983372
0.7165200114 0.0840664729 0.0547409579
0.7585532665 0.0723362640 0.0606060624
0.8005865216 0.0576735102 0.0684261993
0.8435972333 0.0400782004 0.0752688199
0.8866080046 0.0175953079 0.0830889568
0.9315738082 0.0009775171 0.0899315774
0.9765396118 0.0009775171 0.0977517143
0.0009775171 0.1749755591 0.0009775171
0.0009775171 0.1749755591 0.0009775171
0.0009775171 0.1759530753 0.0009775171
0.0009775171 0.1759530753 0.0009775171
0.0508308895 0.1769305915 0.0009775171
0.0928641260 0.1769305915 0.0009775171
0.1251221895 0.1769305915 0.0009775171
0.1544477046 0.1779081076 0.0009775171
0.1818181872 0.1779081076 0.0009775171
0.2082111388 0.1779081076 0.0009775171
0.2346041054 0.1779081076 0.0009775171
0.2600195408 0.1769305915 0.0009775171
0.2864125073 0.1769305915 0.0009775171
0.3108504415 0.1759530753 0.0009775171
0.3362658918 0.1749755591 0.0009775171
0.3607038260 0.1730205268 0.0009775171
0.3851417303 0.1720430106 0.0009775171
0.4105571806 0.1700879782 0.0009775171
0.4389051795 0.1671554297 0.0009775171
0.4682306945 0.1642228812 0.0009775171
0.5004887581 0.1603128016 0.0009775171
0.5347018838 0.1554252207 0.0156402737
0.5698924661 0.1495601237 0.0234604105
0.6070381403 0.1436950117 0.0312805474
0.6461387873 0.1358748823 0.0381231681
0.6862170100 0.1280547380 0.0449657887
0.7262952328 0.1182795689 0.0518084057
0.7683284283 0.1085043997 0.0586510263
0.8103616834 0.0977517143 0.0664711669
0.8533724546 0.0869990215 0.0733137801
0.8973606825 0.0791788846 0.0811339170
0.9413489699 0.0713587478 0.0889540538
0.9863147736 0.0645161271 0.0967741907
0.0009775171 0.1994134933 0.0009775171
0.0009775171 0.1994134933 0.0009775171
0.0009775171 0.1994134933 0.0009775171
0.0009775171 0.2003910094 0.0009775171
0.0009775171 0.2003910094 0.0009775171
0.0821114406 0.2013685256 0.0009775171
0.1192570850 0.2013685256 0.0009775171
0.1505376399 0.2023460418 0.0009775171
0.1788856238 0.2023460418 0.0009775171
0.2072336227 0.2023460418 0.0009775171
0.2346041054 0.2023460418 0.0009775171
0.2609970570 0.2023460418 0.0009775171
0.2873900235 0.2023460418 0.0009775171
0.3128054738 0.2013685256 0.0009775171
0.3382209241 0.2003910094 0.0009775171
0.3636363745 0.1994134933 0.0009775171
0.3890517950 0.1984359771 0.0009775171
0.4144672453 0.1964809448 0.0009775171
0.4428152442 0.1945258975 0.0009775171
0.4731182754 0.1915933490 0.0009775171
0.5063538551 0.1876832843 0.0009775171
0.5405669808 0.1837732196 0.0009775171
0.5777125955 0.1779081076 0.0136852395
0.6158357859 0.1720430106 0.0244379286
0.6549364328 0.1652003974 0.0332355835
0.6950146556 0.1573802531 0.0400782004
0.7360703945 0.1476050764 0.0478983372
0.7790811062 0.1388074309 0.0557184741
0.8211143613 0.1290322542 0.0625610948
0.8641251326 0.1202346012 0.0713587478
0.9081134200 0.1114369482 0.0791788846
0.9521016479 0.1026392952 0.0869990215
0.9960899353 0.0948191583 0.0948191583
0.0009775171 0.2238514125 0.0009775171
0.0009775171 0.2238514125 0.0009775171
0.0009775171 0.2238514125 0.0009775171
0.0009775171 0.2248289287 0.0009775171
0.0009775171 0.2248289287 0.0009775171
0.0645161271 0.2258064449 0.0009775171
0.1094819158 0.2258064449 0.0009775171
0.1446725279 0.2267839760 0.0009775171
0.1759530753 0.2267839760 0.0009775171
0.2043010741 0.2277614921 0.0009775171
0.2326490730 0.2277614921 0.0009775171
0.2600195408 0.2277614921 0.0009775171
0.2873900235 0.2277614921 0.0009775171
0.3137829900 0.2267839760 0.0009775171
0.3401759565 0.2267839760 0.0009775171
0.3655914068 0.2258064449 0.0009775171
0.3919843733 0.2248289287 0.0009775171
0.4173997939 0.2228738964 0.0009775171
0.4467253089 0.2218963802 0.0009775171
0.4780058563 0.2189638317 0.0009775171
0.5102639198 0.2160312831 0.0009775171
0.5464320779 0.2111437023 0.0009775171
0.5835776925 0.2062561065 0.0009775171
0.6217008829 0.2003910094 0.0136852395
0.6627566218 0.1935483813 0.0254154447
0.7038123012 0.1847507358 0.0351906158
0.7458455563 0.1759530753 0.0439882688
0.7888563275 0.1681329459 0.0518084057
0.8318670392 0.1573802531 0.0596285425
0.8748778105 0.1476050764 0.0684261993
0.9188660979 0.1388074309 0.0762463361
0.9628543258 0.1300097704 0.0850439891
1.0000000000 0.1221896410 0.0928641260
0.0009775171 0.2482893467 0.0009775171
0.0009775171 0.2482893467 0.0009775171
0.0009775171 0.2492668629 0.0009775171
0.0009775171 0.2492668629 0.0009775171
0.0009775171 0.2502443790 0.0009775171
0.0254154447 0.2502443790 0.0009775171
0.0967741907 0.2512218952 0.0009775171
0.1368523985 0.2512218952 0.0009775171
0.1700879782 0.2521994114 0.0009775171
0.2013685256 0.2521994114 0.0009775171
0.2306940407 0.2531769276 0.0009775171
0.2590420246 0.2531769276 0.0009775171
0.2864125073 0.2531769276 0.0009775171
0.3137829900 0.2531769276 0.0009775171
0.3401759565 0.2521994114 0.0009775171
0.3675464392 0.2521994114 0.0009775171
0.3929618895 0.2512218952 0.0009775171
0.4193548262 0.2492668629 0.0009775171
0.4486803412 0.2473118305 0.0009775171
0.4809384048 0.2453567982 0.0009775171
0.5141739845 0.2424242496 0.0009775171
0.5503421426 0.2385141701 0.0009775171
0.5884652734 0.2326490730 0.0009775171
0.6285434961 0.2267839760 0.0009775171
0.6695992351 0.2209188640 0.0117302053
0.7116324306 0.2121212184 0.0283479970
0.7546432018 0.2043010741 0.0371456519
0.7976539731 0.1945258975 0.0469208211
0.8416422009 0.1847507358 0.0557184741
0.8856304884 0.1749755591 0.0654936433
0.9305962920 0.1652003974 0.0733137801
0.9745845795 0.1554252207 0.0821114406
1.0000000000 0.1476050764 0.0909090936
0.0009775171 0.2737047970 0.0009775171
0.0009775171 0.2737047970 0.0009775171
0.0009775171 0.2737047970 0.0009775171
0.0009775171 0.2746823132 0.0009775171
0.0009775171 0.2746823132 0.0009775171
0.0009775171 0.2756598294 0.0009775171
0.0791788846 0.2756598294 0.0009775171
0.1260997057 0.2766373456 0.0009775171
0.1632453501 0.2776148617 0.0009775171
0.1964809448 0.2776148617 0.0009775171
0.2267839760 0.2785923779 0.0009775171
0.2561094761 0.2785923779 0.0009775171
0.2844574749 0.2785923779 0.0009775171
0.3128054738 0.2785923779 0.0009775171
0.3401759565 0.2785923779 0.0009775171
0.3665689230 0.2776148617 0.0009775171
0.3929618895 0.2766373456 0.0009775171
0.4203323424 0.2756598294 0.0009775171
0.4496578574 0.2737047970 0.0009775171
0.4819159210 0.2717497647 0.0009775171
0.5171065331 0.2678397000 0.0009775171
0.5532746911 0.2649071217 0.0009775171
0.5923753381 0.2600195408 0.0009775171
0.6324535608 0.2541544437 0.0009775171
0.6744868159 0.2473118305 0.0009775171
0.7184750438 0.2385141701 0.0146627566
0.7624633312 0.2306940407 0.0303030312
0.8064516187 0.2209188640 0.0420332365
0.8514174223 0.2111437023 0.0508308895
0.8963831663 0.1994134933 0.0606060624
0.9413489699 0.1886608005 0.0703812316
0.9853372574 0.1788856238 0.0791788846
1.0000000000 0.1700879782 0.0889540538
0.0009775171 0.2981427312 0.0009775171
0.0009775171 0.2991202474 0.0009775171
0.0009775171 0.2991202474 0.0009775171
0.0009775171 0.2991202474 0.0009775171
0.0009775171 0.3000977635 0.0009775171
0.0009775171 0.3000977635 0.0009775171
0.0469208211 0.3010752797 0.0009775171
0.1124144644 0.3020527959 0.0009775171
0.1534701884 0.3030303121 0.0009775171
0.1896383166 0.3030303121 0.0009775171
0.2218963802 0.3040078282 0.0009775171
0.2531769276 0.3040078282 0.0009775171
0.2825024426 0.3040078282 0.0009775171
0.3108504415 0.3040078282 0.0009775171
0.3382209241 0.3030303121 0.0009775171
0.3655914068 0.3030303121 0.0009775171
0.3929618895 0.3020527959 0.0009775171
0.4203323424 0.3010752797 0.0009775171
0.4506353736 0.2991202474 0.0009775171
0.4828934371 0.2971652150 0.0009775171
0.5180840492 0.2942326367 0.0009775171
0.5552297235 0.2903225720 0.0009775171
0.5953079462 0.2864125073 0.0009775171
0.6363636255 0.2805474102 0.0009775171
0.6793743968 0.2737047970 0.0009775171
0.7233626842 0.2658846676 0.0009775171
0.7693059444 0.2570869923 0.0195503421
0.8142717481 0.2473118305 0.0342130996
0.8602150679 0.2355816215 0.0459433049
0.9061583281 0.2248289287 0.0566959940
0.9521016479 0.2150537670 0.0664711669
0.9970674515 0.2033235580 0.0762463361
1.0000000000 0.1925708652 0.0860215053
0.0009775171 0.3235581517 0.0009775171
0.0009775171 0.3235581517 0.0009775171
0.0009775171 0.3245356679 0.0009775171
0.0009775171 0.3245356679 0.0009775171
0.0009775171 0.3255131841 0.0009775171
0.0009775171 0.3255131841 0.0009775171
0.0009775171 0.3264907002 0.0009775171
0.0918866098 0.3274682164 0.0009775171
0.1417399794 0.3274682164 0.0009775171
0.1818181872 0.3284457624 0.0009775171
0.2150537670 0.3284457624 0.0009775171
0.2473118305 0.3294232786 0.0009775171
0.2785923779 0.3284457624 0.0009775171
0.3079178929 0.3284457624 0.0009775171
0.3352883756 0.3284457624 0.0009775171
0.3636363745 0.3274682164 0.0009775171
0.3900293112 0.3274682164 0.0009775171
0.4183773100 0.3255131841 0.0009775171
0.4496578574 0.3245356679 0.0009775171
0.4828934371 0.3225806355 0.0009775171
0.5180840492 0.3196480870 0.0009775171
0.5562072396 0.3167155385 0.0009775171
0.5962854624 0.3118279576 0.0009775171
0.6392961740 0.3059628606 0.0009775171
0.6832844615 0.3000977635 0.0009775171
0.7282502651 0.2913000882 0.0009775171
0.7751710415 0.2825024426 0.0009775171
0.8211143613 0.2727272809 0.0234604105
0.8680351973 0.2619745731 0.0391006842
0.9149560332 0.2502443790 0.0508308895
0.9618768096 0.2385141701 0.0615835786
1.0000000000 0.2267839760 0.0723362640
1.0000000000 0.2160312831 0.0821114406
0.0009775171 0.3489736021 0.0009775171
0.0009775171 0.3489736021 0.0009775171
0.0009775171 0.3489736021 0.0009775171
0.0009775171 0.3499511182 0.0009775171
0.0009775171 0.3499511182 0.0009775171
0.0009775171 0.3509286344 0.0009775171
0.0009775171 0.3509286344 0.0009775171
0.0625610948 0.3519061506 0.0009775171
0.1270772219 0.3528836668 0.0009775171
0.1700879782 0.3528836668 0.0009775171
0.2082111388 0.3528836668 0.0009775171
0.2414467186 0.3528836668 0.0009775171
0.2727272809 0.3538611829 0.0009775171
0.3030303121 0.3528836668 0.0009775171
0.3323558271 0.3528836668 0.0009775171
0.3597263098 0.3528836668 0.0009775171
0.3880742788 0.3519061506 0.0009775171
0.4164222777 0.3509286344 0.0009775171
0.4477028251 0.3489736021 0.0009775171
0.4809384048 0.3470185697 0.0009775171
0.5171065331 0.3440860212 0.0009775171
0.5562072396 0.3411534727 0.0009775171
0.5972629786 0.3372434080 0.0009775171
0.6402736902 0.3313783109 0.0009775171
0.6852394938 0.3255131841 0.0009775171
0.7321603298 0.3176930547 0.0009775171
0.7800586224 0.3079178929 0.0009775171
0.8279569745 0.2981427312 0.0009775171
0.8758553267 0.2873900235 0.0293255132
0.9237536788 0.2746823132 0.0449657887
0.9706745148 0.2629520893 0.0566959940
1.0000000000 0.2502443790 0.0684261993
1.0000000000 0.2375366539 0.0791788846
0.0009775171 0.3734115362 0.0009775171
0.0009775171 0.3734115362 0.0009775171
0.0009775171 0.3734115362 0.0009775171
0.0009775171 0.3743890524 0.0009775171
0.0009775171 0.3743890524 0.0009775171
0.0009775171 0.3753665686 0.0009775171
0.0009775171 0.3753665686 0.0009775171
0.0009775171 0.3763440847 0.0009775171
0.1075268835 0.3763440847 0.0009775171
0.1573802531 0.3773216009 0.0009775171
0.1964809448 0.3773216009 0.0009775171
0.2336265892 0.3773216009 0.0009775171
0.2658846676 0.3773216009 0.0009775171
0.2971652150 0.3773216009 0.0009775171
0.3274682164 0.3773216009 0.0009775171
0.3567937315 0.3763440847 0.0009775171
0.3841642141 0.3753665686 0.0009775171
0.4134897292 0.3743890524 0.0009775171
0.4457477927 0.3734115362 0.0009775171
0.4789833724 0.3714565039 0.0009775171
0.5161290169 0.3685239553 0.0009775171
0.5552297235 0.3655914068 0.0009775171
0.5962854624 0.3616813421 0.0009775171
0.6402736902 0.3567937315 0.0009775171
0.6871945262 0.3499511182 0.0009775171
0.7341153622 0.3421309888 0.0009775171
0.7829912305 0.3343108594 0.0009775171
0.8328445554 0.3235581517 0.0009775171
0.8817204237 0.3118279576 0.0117302053
0.9315738082 0.2991202474 0.0351906158
0.9794721603 0.2864125073 0.0508308895
1.0000000000 0.2727272809 0.0635386109
1.0000000000 0.2600195408 0.0752688199
0.0009775171 0.3988269866 0.0009775171
0.0009775171 0.3988269866 0.0009775171
0.0009775171 0.3988269866 0.0009775171
0.0009775171 0.3998045027 0.0009775171
0.0009775171 0.3998045027 0.0009775171
0.0009775171 0.4007820189 0.0009775171
0.0009775171 0.4007820189 0.0009775171
0.0009775171 0.4017595351 0.0009775171
0.0733137801 0.4017595351 0.0009775171
0.1397849470 0.4017595351 0.0009775171
0.1857282519 0.4027370512 0.0009775171
0.2228738964 0.4027370512 0.0009775171
0.2580645084 0.4027370512 0.0009775171
0.2903225720 0.4027370512 0.0009775171
0.3216031194 0.4017595351 0.0009775171
0.3509286344 0.4017595351 0.0009775171
0.3792766333 0.4007820189 0.0009775171
0.4095796645 0.3998045027 0.0009775171
0.4408602118 0.3988269866 0.0009775171
0.4760508239 0.3968719542 0.0009775171
0.5131964684 0.3949169219 0.0009775171
0.5532746911 0.3910068572 0.0009775171
0.5953079462 0.3870967627 0.0009775171
0.6402736902 0.3831866980 0.0009775171
0.6871945262 0.3763440847 0.0009775171
0.7360703945 0.3685239553 0.0009775171
0.7859237790 0.3597263098 0.0009775171
0.8357771039 0.3499511182 0.0009775171
0.8875855207 0.3382209241 0.0009775171
0.9374389052 0.3255131841 0.0224828944
0.9872922897 0.3118279576 0.0420332365
1.0000000000 0.2971652150 0.0566959940
1.0000000000 0.2834799588 0.0703812316
0.0009775171 0.4261974692 0.0009775171
0.0009775171 0.4271749854 0.0009775171
0.0009775171 0.4271749854 0.0009775171
0.0009775171 0.4271749854 0.0009775171
0.0009775171 0.4271749854 0.0009775171
0.0009775171 0.4281525016 0.0009775171
0.0009775171 0.4281525016 0.0009775171
0.0009775171 0.4291300178 0.0009775171
0.0009775171 0.4291300178 0.0009775171
0.1133919880 0.4301075339 0.0009775171
0.1681329459 0.4301075339 0.0009775171
0.2101661712 0.4301075339 0.0009775171
0.2473118305 0.4301075339 0.0009775171
